X:1
T:Title
%%score { ( 1 2 ) | ( 3 4 ) }
L:1/8
Q:1/4=100
M:4/4
K:Eb
V:1 treble nm="Midi_20"
V:2 treble 
V:3 bass 
V:4 bass 
V:1
"^John Stainer\n(1840-1901)""^St Benedict (77. 77)""^Jane Eliza Leeson\n(1808-81)""^Saviour, teach me, day by day" B2 BA G2 A2 | %1
 G2 F2 E4 | c2 B2 A2 F2 | G2 A2 F4 || B2 G2 e2 d2 | c2 B2 A4 | A2 G2 FG A2 | G2 F2 E4 |] %8
V:2
 G2 F2 E2 F2 | E2 D2 E4 | E2 =E2 F2 F2 | E2 F2 D4 || E2 E2 G2 F2 | E2 =E2 F4 | F2 E2 E2 E2 | %7
 E2 D2 E4 |] %8
V:3
"^1. Saviour, teach me, day by day,\nLove's sweet lesson to obey;\nSweeter lesson cannot be,\nLoving him who first loved me.\n\n2. With a child's glad heart of love\nAt thy bidding may I move,\nPrompt to serve and follow thee,\nLoving him who first loved me.\n\n3. Teach me thus thy steps to trace,\nStrong to follow in thy grace,\nLearning how to love from thee,\nLoving him who first loved me." B,2 B,2 B,2 C2 | %1
 B,2 A,2 G,4 | A,2 B,2 C2 B,2 | B,2 C2 B,4 || %4
"^4. Love in loving finds employ,\nIn obedience all her joy;\nEver new that joy will be,\nLoving him who first loved me.\n\n5. Thus may I rejoice to show\nThat I feel the love I owe;\nSinging, till thy face I see,\nLoving him who first loved me." B,2 B,2 B,2 =B,2 | %5
 C2 C2 C4 | B,2 B,2 C2 C2 | B,2 B,A, G,4 |] %8
V:4
 E,2 D,2 E,2 A,,2 | B,,2 B,,2 C,4 | A,2 G,2 F,2 D,2 | E,2 A,2 (B,2 A,2) || G,2 G,2 G,2 G,2 | %5
 A,2 G,2 (F,2 _E,2) | D,2 E,2 A,2 F,2 | B,2 B,,2 E,4 |] %8

